!!!SOCIAL_FUNCTION:	war songs
!!!REG: Great Lakes
!!!PDT:	1909
!!!OTL: No_124.krn
**kern	**kern
*staff2	*staff1
*	*k[b-e-a-d-g-c-]
*	*M3/4
*	*tb24
=1-	=1
*clefF4	*
*k[b-e-a-d-g-c-]	*
*M3/4	*
2.r	2f\
.	4e-\
=2	=2
12GG-^/	2.f\
12r	.
12GG-/	.
12GG-^/	.
12r	.
12GG-/	.
12GG-^/	.
12r	.
12GG-/	.
=3||	=3
*M5/4	*M5/4
1r	2e-\
.	2e-\
4r	4d-\
=4	=4
1r	[2.B-\
.	2B-\]
4r	.
=5||	=5||
*M3/4	*M3/4
2.r	2.e-\
=6||	=6||
*M5/4	*M5/4
1r	2.e-\
.	4d-\
4r	4e-\
=7||	=7||
*M2/4	*M2/4
2r	4B-\
.	8B-\L
.	8A-\J
=8||	=8||
*M4/4	*M4/4
1r	2.G-\
.	4E-\
=9||	=9||
*M3/4	*M3/4
2.r	2G-\
.	4E-\
=10	=10
2.r	2.G-\
=11||	=11||
*M4/4	*M4/4
1r	8E-\
.	8G-/
.	[2E-\
.	8E-\L]
.	8D-\J
=12||	=12||
*M3/4	*M3/4
2.r	2.BB-/
=13	=13
2.r	2G-\
.	4E-\
=14	=14
2.r	2.G-\
=15||	=15||
*M2/4	*M2/4
2r	4.E-\
.	8G-\
=16||	=16||
*M4/4	*M4/4
1r	[2E-\
.	2E-\]
=17||	=17||
*M3/4	*M3/4
2.r	2.e-\
=18||	=18||
*M5/4	*M5/4
1r	2.e-\
.	4d-\
4r	4e-\
=19||	=19||
*M2/4	*M2/4
2r	4B-\
.	8B-\L
.	8A-\J
=20||	=20||
*M4/4	*M4/4
1r	2.G-\
.	4E-\
=21||	=21||
*M3/4	*M3/4
2.r	2G-\
.	4E-\
=22	=22
2.r	2.G-\
=23||	=23||
*M4/4	*M4/4
1r	4E-\
.	[2E-\
.	8E-\L]
.	8D-\J
=24||	=24||
*M3/4	*M3/4
2.r	2.BB-/
=25	=25
2.r	2G-\
.	4E-\
=26	=26
2.r	2.G-\
=27||	=27||
*M2/4	*M2/4
2r	4.E-\
.	8G-\
=28	=28
2r	[2E-\
=29	=29
2r	2E-\]
==	==
*-	*-
